!! 00000] TT[WS
!!!OTL: Ping diao
!!!ARE: Asia, China, Shanxi Qinyuan
!! Ethnic Group: Han
!! WII, 169 (1)
!!!SCT: J0654
!!!YEM: Copyright 1995, estate of Helmut Schaffrath.
**kern
*ICvox
*Ivox
*M4/4
*k[b-e-]
*B-:
{8ff
8ff
4ff
8bb-
8ccc
4fff
=1
8fff
8ddd
8ccc
8bb-
8ccc
8fff
8ccc
8bb-
=2
8bb-
8ff
4ff
8ff
8bb-
4bb-
=3
8ff
8bb-
8dd
8cc
2b-}
=4
{8ff
8dd
8cc
8b-
8cc
8ff
4ff
=5
8ff
8dd
8cc
8b-
8cc
8dd
4cc
=6
8ff
8ff
4ff
8bb-
8ccc
8fff
8ddd
=7
8ccc
8fff
8ccc
8bb-
2ff}
==
!!!AGN: Xiaodiao. Pingdiao
!!!ONB: ESAC (Essen Associative Code) Database: CHINA
!!!AMT: simple quadruple
!!!AIN: vox
!!!EED: Helmut Schaffrath
!!!EEV: 1.0
*-
